; generated by PrusaSlicer 2.8.0+win64 on 2024-08-08 at 22:44:17 UTC


;
;
; 

; external perimeters extrusion width = 0.45mm
; perimeters extrusion width = 0.45mm
; infill extrusion width = 0.45mm
; solid infill extrusion width = 0.45mm
; top infill extrusion width = 0.40mm
; support material extrusion width = 0.35mm
; first layer extrusion width = 0.42mm

M73 P0 R159
M73 Q0 S166
M201 X1000 Y1000 Z200 E5000 ; sets maximum accelerations, mm/sec^2
M203 X200 Y200 Z12 E120 ; sets maximum feedrates, mm / sec
M204 S1250 T1250 ; sets acceleration (S) and retract acceleration (R), mm/sec^2
M205 X8.00 Y8.00 Z0.40 E4.50 ; sets the jerk limits, mm/sec
M205 S0 T0 ; sets the minimum extruding and travel feed rate, mm/sec

; printing object cover clinostat.v2 v2 id:0 copy 0
; stop printing object cover clinostat.v2 v2 id:0 copy 0

;TYPE:Custom
M862.3 P "MK3S" ; printer model check
M862.1 P0.4 ; nozzle diameter check
M115 U3.14.0 ; tell printer latest fw version
G90 ; use absolute coordinates
M83 ; extruder relative mode
M104 S215 ; set extruder temp
M140 S60 ; set bed temp
M190 S60 ; wait for bed temp
M109 S215 ; wait for extruder temp
G28 W ; home all without mesh bed level
G80 X48.5838 Y54.6965 W154.754 H114.754 ; mesh bed levelling

G1 Z0.2 F720
G1 Y-3 F1000 ; go outside print area
G92 E0
G1 X60 E9 F1000 ; intro line
G1 X100 E12.5 F1000 ; intro line

G92 E0
M221 S95

; Don't change E values below. Excessive value can damage the printer.

M907 E538 ; set extruder motor current
G21 ; set units to millimeters
G90 ; use absolute coordinates
M83 ; use relative distances for extrusion

M900 K0.05 ; Filament gcode LA 1.5
M900 K30 ; Filament gcode LA 1.0




M107
;LAYER_CHANGE
;Z:0.2
;HEIGHT:0.2
G1 E-.8 F2100
G1 Z.6 F720
G1 X49.163 Y55.825 F10800
G1 Z.2 F720
G1 E.8 F2100
M204 S800
;TYPE:Skirt/Brim
;WIDTH:0.42
G1 F1200
G1 X50.196 Y55.023 E.041
G1 X50.961 Y54.885 E.02437
G1 X200.961 Y54.885 E4.70314
G1 X202.209 Y55.276 E.04101
G1 X203.011 Y56.309 E.041
G1 X203.149 Y57.074 E.02437
G1 X203.149 Y167.074 E3.44897
G1 X202.759 Y168.322 E.041
G1 X201.726 Y169.124 E.041
G1 X200.961 Y169.262 E.02437
G1 X50.961 Y169.262 E4.70314
G1 X49.713 Y168.871 E.04101
G1 X48.91 Y167.838 E.04102
G1 X48.772 Y167.074 E.02434
G1 X48.772 Y57.074 E3.44897
G1 X49.145 Y55.883 E.03913
M204 S1000
;WIPE_START
G1 F8640
G1 X49.163 Y55.825 E-.01402
G1 X50.196 Y55.023 E-.30197
G1 X50.961 Y54.885 E-.17949
G1 X52.28 Y54.885 E-.30452
;WIPE_END
G1 Z.6 F720
; printing object cover clinostat.v2 v2 id:0 copy 0
G1 X51.812 Y166.276 F10800
G1 Z.2 F720
G1 E.8 F2100
M204 S800
;TYPE:External perimeter
;WIDTH:0.494457
G1 F1200
G1 X51.787 Y165.925 E.01321
;WIDTH:0.462132
G1 X51.758 Y165.546 E.01325
;WIDTH:0.429806
G1 X51.758 Y165.536 E.00032
;WIDTH:0.429331
G1 X51.741 Y164.535 E.03217
;WIDTH:0.418028
G1 X51.741 Y164.53 E.00016
;WIDTH:0.420001
G1 X51.74 Y58.317 E3.33025
;WIDTH:0.458581
G1 X51.76 Y58.256 E.00222
M73 Q0 S165
;WIDTH:0.497933
G1 X51.78 Y58.195 E.00243
;WIDTH:0.537285
G1 X51.801 Y58.134 E.00265
;WIDTH:0.576637
G1 X51.821 Y58.073 E.00285
G1 X51.929 Y58.061 E.00482
;WIDTH:0.553814
G1 X199.863 Y58.055 E6.28439
;WIDTH:0.574864
G1 X199.943 Y58.068 E.00358
;WIDTH:0.59995
G1 X200.023 Y58.08 E.00375
G1 X200.043 Y58.157 E.00368
;WIDTH:0.56027
G1 X200.063 Y58.233 E.00338
;WIDTH:0.520589
G1 X200.082 Y58.309 E.00311
;WIDTH:0.481928
G1 X200.083 Y164.536 E3.87767
;WIDTH:0.494643
G1 X200.064 Y165.537 E.03761
;WIDTH:0.5219
G1 X200.024 Y166.194 E.02622
;WIDTH:0.544408
G1 X200.012 Y166.28 E.00362
G1 X199.937 Y166.307 E.00332
;WIDTH:0.500023
G1 X199.861 Y166.333 E.00305
;WIDTH:0.455637
G1 X199.785 Y166.359 E.00276
;WIDTH:0.419999
G1 X51.99 Y166.357 E4.634
;WIDTH:0.45125
G1 X51.902 Y166.331 E.00312
M73 P0 R158
;WIDTH:0.494457
G1 X51.844 Y166.314 E.00227
M204 S1000
G1 X51.844 Y166.314 F10800
G1 X51.405 Y166.65
M204 S800
G1 F1200
G1 X51.384 Y166.205 E.01673
;WIDTH:0.45359
G1 X51.372 Y165.54 E.02271
;WIDTH:0.429331
G1 X51.366 Y164.53 E.03245
;WIDTH:0.420001
G1 X51.364 Y58.316 E3.33028
;WIDTH:0.458581
G1 X51.384 Y58.194 E.00427
;WIDTH:0.497933
G1 X51.405 Y58.071 E.00472
;WIDTH:0.537285
G1 X51.425 Y57.949 E.00508
;WIDTH:0.576637
G1 X51.446 Y57.827 E.00549
G1 X51.447 Y57.562 E.01176
G1 X51.929 Y57.55 E.0214
;WIDTH:0.553814
G1 X199.863 Y57.548 E6.28439
;WIDTH:0.574864
G1 X200.162 Y57.561 E.01324
;WIDTH:0.59995
G1 X200.461 Y57.574 E.01386
G1 X200.461 Y57.852 E.01288
G1 X200.481 Y58.004 E.0071
;WIDTH:0.56027
G1 X200.501 Y58.157 E.00664
;WIDTH:0.520589
G1 X200.52 Y58.309 E.00608
;WIDTH:0.481998
G1 X200.522 Y164.542 E3.87851
;WIDTH:0.494643
G1 X200.515 Y165.543 E.0376
;WIDTH:0.495336
G1 X200.515 Y165.569 E.00098
;WIDTH:0.544408
G1 X200.491 Y166.624 E.044
G1 X200.253 Y166.636 E.00994
G1 X200.128 Y166.665 E.00535
;WIDTH:0.500869
G1 X200.003 Y166.693 E.00488
;WIDTH:0.457329
G1 X199.878 Y166.721 E.00441
;WIDTH:0.42
G1 X199.455 Y166.74 E.01328
G1 X52.47 Y166.74 E4.60862
G1 X51.972 Y166.722 E.01562
;WIDTH:0.45125
G1 X51.688 Y166.686 E.00972
;WIDTH:0.494457
G1 X51.464 Y166.658 E.00848
M204 S1000
M106 S84.15
;LAYER_CHANGE
;Z:0.4
;HEIGHT:0.2
;BEFORE_LAYER_CHANGE
G92 E0.0
;0.4


;WIPE_START
G1 F8640
G1 X51.405 Y166.65 E-.01375
G1 X51.384 Y166.205 E-.10287
G1 X51.372 Y165.54 E-.15358
G1 X51.366 Y164.53 E-.23322
G1 X51.366 Y163.246 E-.29658
;WIPE_END
G1 Z.4 F720
;AFTER_LAYER_CHANGE
;0.4
M104 S210 ; set temperature
; stop printing object cover clinostat.v2 v2 id:0 copy 0
G1 Z.8
G1 X48.772 Y163.246 F10800
G1 Z.4 F720
G1 E.8 F2100
;TYPE:Skirt/Brim
;WIDTH:0.42
G1 F3000
G1 X48.772 Y57.074 E3.32895
G1 X49.163 Y55.825 E.04104
G1 X50.196 Y55.023 E.041
G1 X50.961 Y54.885 E.02437
G1 X200.961 Y54.885 E4.70314
G1 X202.209 Y55.276 E.04101
G1 X203.011 Y56.309 E.041
G1 X203.149 Y57.074 E.02437
G1 X203.149 Y167.074 E3.44897
G1 X202.759 Y168.322 E.041
G1 X201.726 Y169.124 E.041
G1 X200.961 Y169.262 E.02437
G1 X50.961 Y169.262 E4.70314
G1 X49.713 Y168.871 E.04101
M73 P1 R158
G1 X48.91 Y167.838 E.04102
G1 X48.772 Y167.074 E.02434
G1 X48.772 Y163.306 E.11814
;WIPE_START
G1 F8640
G1 X48.772 Y163.246 E-.01385
G1 X48.772 Y159.841 E-.78615
;WIPE_END
G1 Z.8 F720
; printing object cover clinostat.v2 v2 id:0 copy 0
G1 X51.982 Y166.192 F10800
M73 Q0 S164
G1 Z.4 F720
G1 E.8 F2100
M204 S800
;TYPE:External perimeter
;WIDTH:0.496571
G1 F1865.18
G1 X51.956 Y166.172 E.00124
;WIDTH:0.449999
G1 F1879.846
G1 X51.917 Y166.052 E.00427
G1 F1916.166
G1 X51.917 Y165.378 E.02281
G1 F2099.996
G1 X51.917 Y59.183 E3.59457
G1 F1965.958
M73 Q1 S164
G1 X51.917 Y58.509 E.02281
G1 F1924.319
G1 X52.028 Y58.327 E.00722
G1 F1914.172
G1 X52.179 Y58.305 E.00517
G1 F1925.675
G1 X52.854 Y58.305 E.02285
G1 F2099.996
G1 X198.989 Y58.305 E4.94649
G1 F1921.806
G1 X199.663 Y58.305 E.02281
G1 F1907.487
G1 X199.789 Y58.348 E.00451
G1 F1902.472
G1 X199.867 Y58.509 E.00606
G1 F1928.737
G1 X199.867 Y59.183 E.02281
G1 F2099.996
G1 X199.867 Y165.378 E3.59457
G1 F1944.607
G1 X199.867 Y166.052 E.02281
G1 F1931.982
G1 X199.843 Y166.148 E.00335
;WIDTH:0.498466
G1 F1920.023
G1 X199.775 Y166.224 E.00386
;WIDTH:0.546932
G1 F1912.403
G1 X199.707 Y166.3 E.00427
G1 F1913.26
G1 X199.663 Y166.302 E.00185
;WIDTH:0.543142
G1 F1940.687
G1 X198.85 Y166.302 E.03382
G1 F2099.999
G1 X52.934 Y166.302 E6.06918
G1 F1898.384
G1 X52.121 Y166.302 E.03382
G1 F1857.651
G1 X52.038 Y166.237 E.00438
;WIDTH:0.496571
G1 F1865.18
G1 X52.029 Y166.229 E.00045
M204 S1000
;WIPE_START
G1 F8640
G1 X51.982 Y166.192 E-.01381
G1 X51.956 Y166.172 E-.00757
G1 X51.917 Y166.052 E-.02913
G1 X51.917 Y165.378 E-.15563
G1 X51.917 Y162.806 E-.59386
;WIPE_END
G1 Z.8 F720
G1 X51.551 Y58.509 F10800
G1 Z.4 F720
G1 E.8 F2100
M204 S800
;TYPE:Perimeter
;WIDTH:0.393828
G1 F1500
G1 X51.565 Y57.678 E.02425
G1 X51.74 Y57.678 E.00511
;WIDTH:0.443558
G1 X51.828 Y57.702 E.00304
;WIDTH:0.493288
G1 X51.916 Y57.727 E.00343
;WIDTH:0.543018
G1 X52.004 Y57.752 E.0038
;WIDTH:0.592748
G1 X52.091 Y57.777 E.00414
;WIDTH:0.642478
G1 X52.179 Y57.802 E.00456
G1 X52.109 Y57.842 E.00402
;WIDTH:0.592748
G1 X52.039 Y57.883 E.00371
;WIDTH:0.543018
G1 X51.969 Y57.924 E.00337
;WIDTH:0.493288
G1 X51.898 Y57.964 E.00305
;WIDTH:0.443558
G1 X51.828 Y58.005 E.0027
;WIDTH:0.393828
G1 X51.58 Y58.456 E.01502
M204 S1000
;WIPE_START
G1 F8640
G1 X51.551 Y58.509 E-.01395
G1 X51.565 Y57.678 E-.19191
G1 X51.74 Y57.678 E-.04041
G1 X51.828 Y57.702 E-.02106
G1 X51.916 Y57.727 E-.02112
G1 X52.004 Y57.752 E-.02112
G1 X52.091 Y57.777 E-.0209
G1 X52.179 Y57.802 E-.02112
G1 X52.109 Y57.842 E-.01862
G1 X52.039 Y57.883 E-.01873
G1 X51.969 Y57.924 E-.01873
G1 X51.898 Y57.964 E-.01882
G1 X51.828 Y58.005 E-.01873
G1 X51.58 Y58.456 E-.11884
;WIPE_END
G1 E-.23594 F2100
G1 Z.8 F720
G1 X51.612 Y166.423 F10800
G1 Z.4 F720
M73 P1 R157
G1 E.8 F2100
M204 S800
;WIDTH:0.48783
G1 F2609.854
G1 X51.592 Y166.299 E.00465
;WIDTH:0.447541
G1 F2680.011
G1 X51.572 Y166.175 E.00423
;WIDTH:0.407252
G1 F2765.719
G1 X51.551 Y166.052 E.00378
;WIDTH:0.366962
G1 F3600
G1 X51.551 Y58.509 E2.89766
M204 S1000
;WIPE_START
G1 F8640
G1 X51.551 Y61.974 E-.8
;WIPE_END
G1 Z.8 F720
G1 X200.301 Y58.509 F10800
G1 Z.4 F720
G1 E.8 F2100
M204 S800
;WIDTH:0.504722
G1 F3600
G1 X200.301 Y166.052 E4.12954
;WIDTH:0.545318
G1 F2895.348
G1 X200.281 Y166.213 E.00678
;WIDTH:0.585914
G1 F2866.947
G1 X200.261 Y166.374 E.00733
M204 S1000
;WIPE_START
G1 F8640
G1 X200.281 Y166.213 E-.03746
G1 X200.301 Y166.052 E-.03746
G1 X200.301 Y162.912 E-.72508
;WIPE_END
G1 Z.8 F720
G1 X199.663 Y57.802 F10800
G1 Z.4 F720
G1 E.8 F2100
M204 S800
;WIDTH:0.642478
G1 F1500
G1 X199.761 Y57.78 E.00501
;WIDTH:0.599208
G1 X199.858 Y57.759 E.00459
;WIDTH:0.555937
G1 X199.955 Y57.737 E.00424
;WIDTH:0.512667
G1 X200.052 Y57.715 E.00389
;WIDTH:0.469396
G1 X200.149 Y57.694 E.00352
;WIDTH:0.426125
G1 X200.341 Y57.694 E.00612
G1 X200.341 Y57.885 E.00609
;WIDTH:0.465424
G1 X200.321 Y58.197 E.01098
;WIDTH:0.504722
G1 X200.301 Y58.509 E.01201
G1 X200.166 Y58.273 E.01044
;WIDTH:0.465424
G1 X200.031 Y58.036 E.00958
;WIDTH:0.469396
G1 X199.958 Y57.99 E.00306
;WIDTH:0.512667
G1 X199.884 Y57.943 E.00342
;WIDTH:0.555937
G1 X199.811 Y57.896 E.0037
;WIDTH:0.599208
G1 X199.737 Y57.849 E.00405
;WIDTH:0.642478
G1 X199.714 Y57.834 E.00137
M204 S1000
G1 X199.714 Y57.834 F10800
G1 X199.663 Y57.802
M204 S800
G1 F3600
G1 X52.179 Y57.802 E7.35259
M204 S1000
;WIPE_START
G1 F8640
G1 X55.644 Y57.802 E-.8
;WIPE_END
G1 Z.8 F720
G1 X51.186 Y166.849 F10800
G1 Z.4 F720
G1 E.8 F2100
M204 S800
;TYPE:External perimeter
;WIDTH:0.449999
G1 F1779.162
G1 X51.186 Y166.174 E.02285
G1 F2099.996
G1 X51.186 Y57.974 E3.66244
G1 F1833.638
G1 X51.186 Y57.299 E.02285
G1 F1788.693
G1 X51.997 Y57.299 E.02745
G1 F1833.637
G1 X52.672 Y57.299 E.02285
G1 F2099.996
G1 X200.061 Y57.299 E4.98893
G1 F1804.314
G1 X200.736 Y57.299 E.02285
G1 F1762.348
G1 X200.736 Y57.885 E.01984
G1 F1811.097
G1 X200.736 Y58.56 E.02285
G1 F2099.996
G1 X200.736 Y166.174 E3.6426
G1 F1861.343
G1 X200.736 Y166.849 E.02285
G1 F1844.385
G1 X200.261 Y166.849 E.01608
;WIDTH:0.496571
G1 F1859.574
G1 X199.962 Y166.825 E.01131
;WIDTH:0.543142
G1 F1884.934
G1 X199.663 Y166.802 E.01247
G1 F1930.291
G1 X198.849 Y166.802 E.03386
G1 F2099.999
G1 X52.935 Y166.802 E6.06909
G1 F1887.518
G1 X52.121 Y166.802 E.03386
G1 F1815.675
G1 X51.653 Y166.825 E.01949
;WIDTH:0.496571
G1 F1759.526
G1 X51.246 Y166.846 E.01537
M204 S1000
M106 S170.85
;LAYER_CHANGE
;Z:0.6
;HEIGHT:0.2
;BEFORE_LAYER_CHANGE
G92 E0.0
;0.6


;WIPE_START
G1 F8640
G1 X51.186 Y166.849 E-.01387
G1 X51.186 Y166.174 E-.15586
G1 X51.186 Y163.444 E-.63027
;WIPE_END
G1 Z.6 F720
;AFTER_LAYER_CHANGE
;0.6
; stop printing object cover clinostat.v2 v2 id:0 copy 0
G1 Z1
G1 X48.772 Y163.444 F10800
G1 Z.6 F720
G1 E.8 F2100
;TYPE:Skirt/Brim
;WIDTH:0.42
G1 F3000
G1 X48.772 Y57.074 E3.33516
G1 X49.163 Y55.825 E.04104
G1 X50.196 Y55.023 E.041
G1 X50.961 Y54.885 E.02437
G1 X200.961 Y54.885 E4.70314
G1 X202.209 Y55.276 E.04101
G1 X203.011 Y56.309 E.041
G1 X203.149 Y57.074 E.02437
G1 X203.149 Y167.074 E3.44897
G1 X202.759 Y168.322 E.041
G1 X201.726 Y169.124 E.041
G1 X200.961 Y169.262 E.02437
G1 X50.961 Y169.262 E4.70314
G1 X49.713 Y168.871 E.04101
G1 X48.91 Y167.838 E.04102
G1 X48.772 Y167.074 E.02434
G1 X48.772 Y163.504 E.11193
;WIPE_START
G1 F8640
G1 X48.772 Y163.444 E-.01385
G1 X48.772 Y160.039 E-.78615
;WIPE_END
G1 Z1 F720
; printing object cover clinostat.v2 v2 id:0 copy 0
G1 X51.982 Y166.192 F10800
G1 Z.6 F720
G1 E.8 F2100
M204 S800
;TYPE:External perimeter
;WIDTH:0.496571
G1 F2016.697
G1 X51.956 Y166.172 E.00124
;WIDTH:0.449999
G1 F2100
G1 X51.917 Y166.052 E.00427
G1 F2099.996
G1 X51.917 Y59.183 E3.61738
G1 F2043.462
G1 X51.917 Y58.509 E.02281
G1 F2025.899
G1 X52.028 Y58.327 E.00722
G1 F2021.619
G1 X52.179 Y58.305 E.00517
G1 F2026.471
G1 X52.854 Y58.305 E.02285
G1 F2099.996
G1 X198.989 Y58.305 E4.94649
G1 F2028.554
M73 Q1 S163
G1 X199.663 Y58.305 E.02281
G1 F2007.773
G1 X199.789 Y58.348 E.00451
G1 X199.867 Y58.509 E.00606
G1 F2020.036
G1 X199.867 Y59.183 E.02281
G1 F2099.996
G1 X199.867 Y166.052 E3.61738
G1 F2100
G1 X199.843 Y166.148 E.00335
;WIDTH:0.498466
G1 F2020.757
G1 X199.775 Y166.224 E.00386
;WIDTH:0.546932
G1 F1931.124
G1 X199.707 Y166.3 E.00427
G1 F2095.399
G1 X199.663 Y166.302 E.00185
;WIDTH:0.543142
G1 F2099.999
G1 X52.121 Y166.302 E6.13681
G1 F1920.946
G1 X52.038 Y166.237 E.00438
;WIDTH:0.496571
G1 F2016.697
G1 X52.029 Y166.229 E.00045
M204 S1000
;WIPE_START
G1 F8640
G1 X51.982 Y166.192 E-.01381
G1 X51.956 Y166.172 E-.00757
G1 X51.917 Y166.052 E-.02913
G1 X51.917 Y162.806 E-.74949
;WIPE_END
G1 Z1 F720
G1 X51.551 Y58.509 F10800
G1 Z.6 F720
G1 E.8 F2100
M204 S800
;TYPE:Perimeter
;WIDTH:0.393828
G1 F1500
G1 X51.565 Y57.678 E.02425
G1 X51.74 Y57.678 E.00511
;WIDTH:0.443558
G1 X51.828 Y57.702 E.00304
;WIDTH:0.493288
G1 X51.916 Y57.727 E.00343
;WIDTH:0.543018
G1 X52.004 Y57.752 E.0038
;WIDTH:0.592748
G1 X52.091 Y57.777 E.00414
;WIDTH:0.642478
G1 X52.179 Y57.802 E.00456
G1 X52.109 Y57.842 E.00402
;WIDTH:0.592748
G1 X52.039 Y57.883 E.00371
;WIDTH:0.543018
G1 X51.969 Y57.924 E.00337
;WIDTH:0.493288
G1 X51.898 Y57.964 E.00305
;WIDTH:0.443558
G1 X51.828 Y58.005 E.0027
;WIDTH:0.393828
G1 X51.58 Y58.456 E.01502
M204 S1000
;WIPE_START
G1 F8640
G1 X51.551 Y58.509 E-.01395
G1 X51.565 Y57.678 E-.19191
G1 X51.74 Y57.678 E-.04041
G1 X51.828 Y57.702 E-.02106
G1 X51.916 Y57.727 E-.02112
G1 X52.004 Y57.752 E-.02112
G1 X52.091 Y57.777 E-.0209
G1 X52.179 Y57.802 E-.02112
G1 X52.109 Y57.842 E-.01862
G1 X52.039 Y57.883 E-.01873
G1 X51.969 Y57.924 E-.01873
G1 X51.898 Y57.964 E-.01882
G1 X51.828 Y58.005 E-.01873
G1 X51.58 Y58.456 E-.11884
;WIPE_END
G1 E-.23594 F2100
G1 Z1 F720
G1 X51.612 Y166.423 F10800
G1 Z.6 F720
G1 E.8 F2100
M204 S800
;WIDTH:0.48783
G1 F3600
G1 X51.592 Y166.299 E.00465
;WIDTH:0.447541
G1 X51.572 Y166.175 E.00423
;WIDTH:0.407252
G1 X51.551 Y166.052 E.00378
;WIDTH:0.366962
G1 X51.551 Y58.509 E2.89766
M204 S1000
;WIPE_START
G1 F8640
G1 X51.551 Y61.974 E-.8
;WIPE_END
G1 Z1 F720
G1 X200.301 Y58.509 F10800
G1 Z.6 F720
G1 E.8 F2100
M204 S800
;WIDTH:0.504722
G1 F3600
G1 X200.301 Y166.052 E4.12954
;WIDTH:0.545318
G1 X200.281 Y166.213 E.00678
;WIDTH:0.585914
G1 X200.261 Y166.374 E.00733
M204 S1000
;WIPE_START
G1 F8640
G1 X200.281 Y166.213 E-.03746
G1 X200.301 Y166.052 E-.03746
G1 X200.301 Y162.912 E-.72508
;WIPE_END
G1 Z1 F720
G1 X199.663 Y57.802 F10800
G1 Z.6 F720
M73 P1 R156
G1 E.8 F2100
M204 S800
;WIDTH:0.642478
G1 F1500
G1 X199.761 Y57.78 E.00501
;WIDTH:0.599208
G1 X199.858 Y57.759 E.00459
;WIDTH:0.555937
G1 X199.955 Y57.737 E.00424
;WIDTH:0.512667
G1 X200.052 Y57.715 E.00389
;WIDTH:0.469396
G1 X200.149 Y57.694 E.00352
;WIDTH:0.426125
G1 X200.341 Y57.694 E.00612
G1 X200.341 Y57.885 E.00609
;WIDTH:0.465424
G1 X200.321 Y58.197 E.01098
;WIDTH:0.504722
G1 X200.301 Y58.509 E.01201
G1 X200.166 Y58.273 E.01044
;WIDTH:0.465424
G1 X200.031 Y58.036 E.00958
;WIDTH:0.469396
G1 X199.958 Y57.99 E.00306
;WIDTH:0.512667
G1 X199.884 Y57.943 E.00342
;WIDTH:0.555937
G1 X199.811 Y57.896 E.0037
;WIDTH:0.599208
G1 X199.737 Y57.849 E.00405
;WIDTH:0.642478
G1 X199.714 Y57.834 E.00137
M204 S1000
G1 X199.714 Y57.834 F10800
G1 X199.663 Y57.802
M204 S800
G1 F3600
G1 X52.179 Y57.802 E7.35259
M204 S1000
;WIPE_START
G1 F8640
